svg/color/bmi.svg

<?xml version="1.0" encoding="UTF-8" ?>
<!DOCTYPE svg PUBLIC "-//W3C//DTD SVG 1.1//EN" "http://www.w3.org/Graphics/SVG/1.1/DTD/svg11.dtd">
<svg width="250pt" height="250pt" viewBox="0 0 250 250" version="1.1" xmlns="http://www.w3.org/2000/svg">
<g id="#ffffffff">
<path fill="#ffffff" opacity="1.00" d=" M 0.00 0.00 L 250.00 0.00 L 250.00 250.00 L 0.00 250.00 L 0.00 0.00 M 81.48 185.55 C 89.72 185.52 97.96 185.63 106.20 185.49 C 106.22 183.82 106.24 182.15 106.25 180.49 C 110.21 183.71 114.95 185.93 119.93 187.04 C 132.14 189.42 145.37 186.99 155.41 179.46 C 176.51 164.51 182.57 133.19 170.30 110.78 C 164.15 99.12 153.56 89.76 140.93 85.77 C 129.38 82.36 116.07 83.96 106.41 91.46 C 106.40 75.50 106.39 59.55 106.25 43.60 C 98.00 43.58 89.75 43.59 81.49 43.59 C 81.46 90.91 81.49 138.23 81.48 185.55 M 182.41 160.64 C 175.91 163.31 172.08 171.25 174.39 177.95 C 176.36 185.18 184.68 189.82 191.86 187.63 C 199.93 185.75 204.87 175.99 201.47 168.39 C 198.71 161.11 189.47 157.24 182.41 160.64 Z" />
<path fill="#ffffff" opacity="1.00" d=" M 106.31 111.17 C 113.89 106.54 123.39 104.00 132.08 106.80 C 140.61 109.01 147.27 116.17 149.82 124.47 C 154.17 137.68 150.88 154.73 138.45 162.43 C 129.75 167.94 117.79 167.69 109.40 161.68 C 108.20 160.63 106.00 159.93 106.22 157.97 C 106.25 142.37 106.06 126.77 106.31 111.17 Z" />
</g>
<g id="#243237ff">
<path fill="#243237" opacity="1.00" d=" M 81.48 185.55 C 81.49 138.23 81.46 90.91 81.49 43.59 C 89.75 43.59 98.00 43.58 106.25 43.60 C 106.39 59.55 106.40 75.50 106.41 91.46 C 116.07 83.96 129.38 82.36 140.93 85.77 C 153.56 89.76 164.15 99.12 170.30 110.78 C 182.57 133.19 176.51 164.51 155.41 179.46 C 145.37 186.99 132.14 189.42 119.93 187.04 C 114.95 185.93 110.21 183.71 106.25 180.49 C 106.24 182.15 106.22 183.82 106.20 185.49 C 97.96 185.63 89.72 185.52 81.48 185.55 M 106.31 111.17 C 106.06 126.77 106.25 142.37 106.22 157.97 C 106.00 159.93 108.20 160.63 109.40 161.68 C 117.79 167.69 129.75 167.94 138.45 162.43 C 150.88 154.73 154.17 137.68 149.82 124.47 C 147.27 116.17 140.61 109.01 132.08 106.80 C 123.39 104.00 113.89 106.54 106.31 111.17 Z" />
</g>
<g id="#268bc4ff">
<path fill="#268bc4" opacity="1.00" d=" M 182.41 160.64 C 189.47 157.24 198.71 161.11 201.47 168.39 C 204.87 175.99 199.93 185.75 191.86 187.63 C 184.68 189.82 176.36 185.18 174.39 177.95 C 172.08 171.25 175.91 163.31 182.41 160.64 Z" />
</g>
</svg>

<?xml version="1.0" encoding="utf-8"?>
<!-- Generator: Adobe Illustrator 26.0.3, SVG Export Plug-In . SVG Version: 6.00 Build 0)  -->
<svg version="1.1" id="Layer_1" xmlns="http://www.w3.org/2000/svg" xmlns:xlink="http://www.w3.org/1999/xlink" x="0px" y="0px"
	 viewBox="0 0 250 250" style="enable-background:new 0 0 250 250;" xml:space="preserve">
<style type="text/css">
	.st0{fill:#FFFFFF;}
	.st1{fill:#243237;}
	.st2{fill:#268BC4;}
</style>
<g id="_x23_ffffffff">
	<path class="st0" d="M106.3,111.2c7.6-4.6,17.1-7.2,25.8-4.4c8.5,2.2,15.2,9.4,17.7,17.7c4.3,13.2,1.1,30.3-11.4,38
		c-8.7,5.5-20.7,5.3-29-0.8c-1.2-1-3.4-1.8-3.2-3.7C106.2,142.4,106.1,126.8,106.3,111.2z"/>
</g>
<g id="_x23_243237ff">
	<path class="st1" d="M81.5,185.6c0-47.3,0-94.6,0-142c8.3,0,16.5,0,24.8,0c0.1,16,0.2,31.9,0.2,47.9c9.7-7.5,23-9.1,34.5-5.7
		c12.6,4,23.2,13.4,29.4,25c12.3,22.4,6.2,53.7-14.9,68.7c-10,7.5-23.3,10-35.5,7.6c-5-1.1-9.7-3.3-13.7-6.5c0,1.7,0,3.3-0.1,5
		C98,185.6,89.7,185.5,81.5,185.6 M106.3,111.2c-0.2,15.6-0.1,31.2-0.1,46.8c-0.2,2,2,2.7,3.2,3.7c8.4,6,20.3,6.3,29,0.8
		c12.4-7.7,15.7-24.8,11.4-38c-2.6-8.3-9.2-15.5-17.7-17.7C123.4,104,113.9,106.5,106.3,111.2z"/>
</g>
<g id="_x23_268bc4ff">
	<path class="st2" d="M182.4,160.6c7.1-3.4,16.3,0.5,19.1,7.8c3.4,7.6-1.5,17.4-9.6,19.2c-7.2,2.2-15.5-2.5-17.5-9.7
		C172.1,171.2,175.9,163.3,182.4,160.6z"/>
</g>
</svg>
